X: 7359
T: Cliffs Of Moher, The
R: jig
M: 6/8
K: Adorian
|:eaa bag|eaf ged|~c2A BAG|EFG ABd|
eaa bag|eaf ged|~c2A BAG|EFG A3:|
|:e=fe dBA|e=fe dBA|GAB dBA|GAB dcd|
[1 e=fe dBA|e=fe dBA|GAB dBG|EFG A3:|
[2 e3 d3|c3 B3|efg age|dBG A3||

